public/library/resonance-security-icon-light.svg

<svg xmlns="http://www.w3.org/2000/svg" width="400" height="400" fill="none" viewBox="0 0 400 400"><path fill="#000" d="M0 0h400v400H0z"/><path fill="#fff" stroke="#fff" stroke-width="1.389" d="M107.372 201.794h-2.894l-2.003-5.771a1.1 1.1 0 0 0-1.106-.72c-.495.027-.909.37-1.012.837l-2.46 11.281-2.657-17.075c-.088-.519-.558-.898-1.104-.89s-1.003.402-1.073.923l-2.229 19.058-2.894-24.457c-.058-.539-.53-.95-1.094-.95s-1.036.411-1.094.95l-2.894 24.457-2.194-19.058c-.06-.53-.522-.935-1.076-.943-.554-.009-1.029.381-1.106.91l-2.594 16.713-2.5-13.226a1.086 1.086 0 0 0-1.041-.871 1.094 1.094 0 0 0-1.107.793l-2.037 7.543h-3.335c-.48 0-.868.374-.868.836s.389.835.868.835h3.827a1.1 1.1 0 0 0 1.065-.796l1.435-5.315 2.675 14.117c.095.511.56.88 1.1.871.539-.008.992-.391 1.07-.904l2.443-15.721 2.315 19.799c.058.539.53.95 1.095.95.563 0 1.036-.411 1.093-.95l2.877-24.491 2.895 24.479c.07.529.537.925 1.091.925s1.022-.396 1.091-.925l2.315-19.799 2.45 15.838c.085.501.528.873 1.055.886s.99-.334 1.103-.83l2.709-12.406 1.459 4.195v-.001c.12.338.451.562.822.558h3.519a.85.85 0 0 0 .746-.828.85.85 0 0 0-.746-.827Z"/><path fill="#fff" d="M139.531 194.428v3.806q0 3.775-4.082 5.071 2.236 3.207 4.52 8.034a51 51 0 0 1-6.771 0q-2.204-4.551-4.115-7.37h-4.438v7.37a47.5 47.5 0 0 1-6.334 0v-22.662h11.469q2.316 0 4.066.308 1.749.307 3.045.988 1.296.665 1.96 1.782.68 1.118.68 2.673m-6.333 2.348v-.826q0-.648-.26-1.069-.258-.421-.793-.615a4 4 0 0 0-1.086-.276 12 12 0 0 0-1.376-.065h-5.038v4.876h5.038q.825 0 1.376-.065a4.5 4.5 0 0 0 1.086-.259q.535-.21.793-.631.26-.422.26-1.07M161.805 211.339h-18.369v-22.662h18.369a23.2 23.2 0 0 1 0 5.054H149.77v3.742h11.711a22.8 22.8 0 0 1 0 5.005H149.77v3.791h12.035a23.4 23.4 0 0 1 0 5.07M184.549 203.774v2.625q0 5.345-10.416 5.345-4.925 0-9.087-.534-.178-1.086-.178-2.592 0-1.523.178-2.624 5.232.534 8.99.534 2.09 0 3.143-.21 1.07-.227 1.069-.924v-.923q0-.681-.373-.891-.372-.21-2.235-.616a82 82 0 0 1-1.442-.324l-4.811-1.085a7.8 7.8 0 0 1-1.733-.599 5.3 5.3 0 0 1-1.377-1.005q-.632-.648-.972-1.652-.34-1.02-.34-2.381v-2.333q0-5.33 10.432-5.329 4.6 0 8.845.761.162 1.07.162 2.527 0 1.442-.162 2.511-4.633-.632-8.651-.632-2.283 0-3.304.211-1.005.194-1.005.923v.729q0 .746.697 1.085.696.34 3.386.972l4.794 1.151q1.103.258 1.815.583a5 5 0 0 1 1.36.907q.632.583.924 1.522.291.924.291 2.268M210.177 194.687v10.578q0 1.782-.794 3.061-.794 1.264-2.317 2.009-1.523.729-3.531 1.069-1.992.34-4.617.34-2.09 0-3.774-.21a16.5 16.5 0 0 1-3.11-.681q-1.41-.47-2.365-1.215a5.2 5.2 0 0 1-1.474-1.846q-.519-1.102-.519-2.527v-10.578q0-1.427.519-2.511a5.1 5.1 0 0 1 1.474-1.831q.955-.744 2.365-1.214 1.425-.47 3.11-.665 1.684-.21 3.774-.21 2.625 0 4.617.34 2.008.324 3.531 1.069 1.523.729 2.317 1.993.794 1.263.794 3.029m-6.35 9.185v-7.857q0-.68-.26-1.15a2 2 0 0 0-.664-.729q-.388-.276-1.069-.421a8 8 0 0 0-1.328-.178 21 21 0 0 0-1.588-.049q-.955 0-1.603.049a8 8 0 0 0-1.312.178q-.681.145-1.086.421a2.04 2.04 0 0 0-.648.729q-.26.47-.259 1.15v7.857q0 .663.259 1.133.26.47.648.746.405.258 1.086.421.68.146 1.328.194.648.033 1.587.033.94 0 1.588-.033a10 10 0 0 0 1.328-.194q.68-.162 1.069-.421.405-.275.664-.746.26-.47.26-1.133M229.664 211.339l-9.314-13.51v13.51a32.7 32.7 0 0 1-6.334 0v-22.662q3.386-.195 6.755 0l9.46 13.866v-13.866q3.29-.195 6.334 0v22.662q-3.45.195-6.901 0M257.673 211.339l-1.458-3.774h-9.217l-1.474 3.774q-3.24.227-6.496 0l9.557-22.662q3.046-.21 6.107 0l9.541 22.662a47.6 47.6 0 0 1-6.56 0m-3.386-8.763-2.689-7.031-2.721 7.031zM282.344 211.339l-9.314-13.51v13.51a32.7 32.7 0 0 1-6.334 0v-22.662q3.386-.195 6.755 0l9.46 13.866v-13.866q3.29-.195 6.334 0v22.662q-3.45.195-6.901 0M293.101 205.427v-10.87q0-1.749.81-2.997t2.365-1.96 3.58-1.02q2.025-.324 4.698-.324 3.676 0 7.921.632a23.2 23.2 0 0 1 0 5.037q-3.693-.437-6.804-.437-1.085 0-1.733.016-.631.016-1.458.097-.827.066-1.296.227a4.3 4.3 0 0 0-.907.421q-.453.26-.648.681-.194.421-.194.988v7.986q0 .518.162.907.178.389.437.664.26.26.745.454.486.178.924.275.437.098 1.166.162.745.049 1.312.065h1.49q2.641 0 6.836-.632.47 2.252.47 5.006-4.844.939-8.423.939-2.673 0-4.698-.324-2.025-.323-3.58-1.037-1.555-.712-2.365-1.96t-.81-2.996M334.862 211.339h-18.369v-22.662h18.369a23.2 23.2 0 0 1 0 5.054h-12.035v3.742h11.711a22.8 22.8 0 0 1 0 5.005h-11.711v3.791h12.035a23.4 23.4 0 0 1 0 5.07"/></svg>

<svg width="400" height="400" viewBox="0 0 400 400" fill="none" xmlns="http://www.w3.org/2000/svg">
<rect width="400" height="400" fill="black"/>
<path d="M107.372 201.794H104.478L102.475 196.023C102.317 195.571 101.864 195.276 101.369 195.303C100.874 195.33 100.46 195.673 100.357 196.14L97.8965 207.421L95.2397 190.346C95.1524 189.827 94.6824 189.448 94.1361 189.456C93.5898 189.465 93.1331 189.858 93.0628 190.379L90.8344 209.437L87.9401 184.98C87.8824 184.441 87.4099 184.03 86.8459 184.03C86.2822 184.03 85.8098 184.441 85.752 184.98L82.8578 209.437L80.664 190.379C80.6034 189.849 80.1423 189.444 79.588 189.436C79.0336 189.427 78.5591 189.817 78.4816 190.346L75.8882 207.059L73.3876 193.833C73.2968 193.343 72.8631 192.98 72.3467 192.962C71.8299 192.943 71.3696 193.273 71.2404 193.755L69.2025 201.298H65.8685C65.3888 201.298 65 201.672 65 202.134C65 202.595 65.3888 202.969 65.8685 202.969H69.6947C70.1962 202.967 70.6335 202.64 70.7599 202.173L72.1954 196.858L74.8696 210.975C74.9649 211.486 75.4308 211.855 75.9699 211.846C76.509 211.838 76.9624 211.455 77.0403 210.942L79.4832 195.221L81.7984 215.02C81.8565 215.559 82.3289 215.97 82.8926 215.97C83.4563 215.97 83.9286 215.559 83.9864 215.02L86.8633 190.529L89.7576 215.008C89.8275 215.537 90.295 215.933 90.849 215.933C91.4031 215.933 91.8706 215.537 91.9401 215.008L94.2553 195.209L96.7042 211.047C96.7898 211.548 97.2327 211.92 97.7596 211.933C98.2866 211.947 98.7497 211.599 98.8632 211.103L101.572 198.697L103.031 202.892V202.891C103.151 203.229 103.482 203.453 103.853 203.449H107.372C107.8 203.39 108.118 203.037 108.118 202.621C108.118 202.205 107.8 201.853 107.372 201.794L107.372 201.794Z" fill="white" stroke="white" stroke-width="1.38867"/>
<path d="M139.531 194.428V198.234C139.531 200.751 138.171 202.441 135.449 203.305C136.94 205.443 138.446 208.121 139.969 211.339C137.712 211.49 135.455 211.49 133.198 211.339C131.729 208.305 130.357 205.848 129.083 203.969H124.645V211.339C122.539 211.48 120.428 211.48 118.311 211.339V188.677H129.78C131.324 188.677 132.679 188.78 133.846 188.985C135.012 189.19 136.027 189.519 136.891 189.973C137.755 190.416 138.408 191.01 138.851 191.755C139.305 192.5 139.531 193.391 139.531 194.428ZM133.198 196.776V195.95C133.198 195.518 133.111 195.162 132.938 194.881C132.766 194.6 132.501 194.395 132.145 194.266C131.799 194.125 131.437 194.033 131.059 193.99C130.692 193.947 130.233 193.925 129.683 193.925H124.645V198.801H129.683C130.233 198.801 130.692 198.78 131.059 198.736C131.437 198.693 131.799 198.607 132.145 198.477C132.501 198.337 132.766 198.126 132.938 197.846C133.111 197.565 133.198 197.208 133.198 196.776Z" fill="white"/>
<path d="M161.805 211.339H143.436V188.677H161.805C161.989 190.362 161.989 192.046 161.805 193.731H149.77V197.473H161.481C161.665 199.147 161.665 200.815 161.481 202.478H149.77V206.269H161.805C161.989 207.954 161.989 209.644 161.805 211.339Z" fill="white"/>
<path d="M184.549 203.774V206.399C184.549 209.962 181.077 211.744 174.133 211.744C170.85 211.744 167.821 211.566 165.046 211.21C164.927 210.486 164.868 209.622 164.868 208.618C164.868 207.603 164.927 206.728 165.046 205.994C168.534 206.35 171.531 206.528 174.036 206.528C175.429 206.528 176.477 206.458 177.179 206.318C177.892 206.166 178.248 205.859 178.248 205.394V204.471C178.248 204.017 178.124 203.72 177.875 203.58C177.627 203.44 176.882 203.234 175.64 202.964C175.046 202.835 174.565 202.727 174.198 202.64L169.387 201.555C168.728 201.404 168.151 201.204 167.654 200.956C167.157 200.707 166.698 200.373 166.277 199.951C165.856 199.519 165.532 198.969 165.305 198.299C165.078 197.619 164.965 196.825 164.965 195.918V193.585C164.965 190.032 168.442 188.256 175.397 188.256C178.464 188.256 181.412 188.51 184.242 189.017C184.35 189.73 184.404 190.572 184.404 191.544C184.404 192.505 184.35 193.342 184.242 194.055C181.153 193.634 178.27 193.423 175.591 193.423C174.069 193.423 172.967 193.493 172.287 193.634C171.617 193.763 171.282 194.071 171.282 194.557V195.286C171.282 195.783 171.515 196.145 171.979 196.371C172.443 196.598 173.572 196.922 175.365 197.343L180.159 198.494C180.894 198.666 181.499 198.861 181.974 199.077C182.46 199.293 182.913 199.595 183.334 199.984C183.756 200.373 184.063 200.88 184.258 201.506C184.452 202.122 184.549 202.878 184.549 203.774Z" fill="white"/>
<path d="M210.177 194.687V205.265C210.177 206.453 209.912 207.473 209.383 208.326C208.854 209.169 208.081 209.838 207.066 210.335C206.051 210.821 204.874 211.177 203.535 211.404C202.207 211.631 200.668 211.744 198.918 211.744C197.525 211.744 196.267 211.674 195.144 211.534C194.021 211.393 192.984 211.166 192.034 210.853C191.094 210.54 190.306 210.135 189.669 209.638C189.042 209.142 188.551 208.526 188.195 207.792C187.849 207.057 187.676 206.215 187.676 205.265V194.687C187.676 193.736 187.849 192.899 188.195 192.176C188.551 191.442 189.042 190.831 189.669 190.345C190.306 189.849 191.094 189.444 192.034 189.131C192.984 188.817 194.021 188.596 195.144 188.466C196.267 188.326 197.525 188.256 198.918 188.256C200.668 188.256 202.207 188.369 203.535 188.596C204.874 188.812 206.051 189.168 207.066 189.665C208.081 190.151 208.854 190.815 209.383 191.658C209.912 192.5 210.177 193.51 210.177 194.687ZM203.827 203.872V196.015C203.827 195.562 203.74 195.178 203.567 194.865C203.395 194.552 203.173 194.309 202.903 194.136C202.644 193.952 202.288 193.812 201.834 193.715C201.381 193.618 200.938 193.558 200.506 193.537C200.085 193.504 199.555 193.488 198.918 193.488C198.281 193.488 197.747 193.504 197.315 193.537C196.893 193.558 196.456 193.618 196.003 193.715C195.549 193.812 195.187 193.952 194.917 194.136C194.658 194.309 194.442 194.552 194.269 194.865C194.096 195.178 194.01 195.562 194.01 196.015V203.872C194.01 204.314 194.096 204.692 194.269 205.005C194.442 205.319 194.658 205.567 194.917 205.751C195.187 205.923 195.549 206.064 196.003 206.172C196.456 206.269 196.899 206.334 197.331 206.366C197.763 206.388 198.292 206.399 198.918 206.399C199.545 206.399 200.074 206.388 200.506 206.366C200.938 206.334 201.381 206.269 201.834 206.172C202.288 206.064 202.644 205.923 202.903 205.751C203.173 205.567 203.395 205.319 203.567 205.005C203.74 204.692 203.827 204.314 203.827 203.872Z" fill="white"/>
<path d="M229.664 211.339L220.35 197.829V211.339C218.244 211.544 216.133 211.544 214.016 211.339V188.677C216.273 188.547 218.525 188.547 220.771 188.677L230.231 202.543V188.677C232.424 188.547 234.535 188.547 236.565 188.677V211.339C234.265 211.469 231.965 211.469 229.664 211.339Z" fill="white"/>
<path d="M257.673 211.339L256.215 207.565H246.998L245.524 211.339C243.364 211.49 241.199 211.49 239.028 211.339L248.585 188.677C250.616 188.537 252.651 188.537 254.692 188.677L264.233 211.339C262.041 211.49 259.854 211.49 257.673 211.339ZM254.287 202.576L251.598 195.545L248.877 202.576H254.287Z" fill="white"/>
<path d="M282.344 211.339L273.03 197.829V211.339C270.924 211.544 268.813 211.544 266.696 211.339V188.677C268.953 188.547 271.205 188.547 273.451 188.677L282.911 202.543V188.677C285.104 188.547 287.215 188.547 289.245 188.677V211.339C286.945 211.469 284.645 211.469 282.344 211.339Z" fill="white"/>
<path d="M293.101 205.427V194.557C293.101 193.391 293.371 192.392 293.911 191.56C294.451 190.729 295.239 190.075 296.276 189.6C297.313 189.125 298.506 188.785 299.856 188.58C301.206 188.364 302.772 188.256 304.554 188.256C307.005 188.256 309.645 188.466 312.475 188.888C312.658 190.561 312.658 192.241 312.475 193.925C310.013 193.634 307.745 193.488 305.671 193.488C304.948 193.488 304.37 193.493 303.938 193.504C303.517 193.515 303.031 193.547 302.48 193.601C301.929 193.645 301.497 193.72 301.184 193.828C300.882 193.925 300.579 194.066 300.277 194.249C299.975 194.422 299.759 194.649 299.629 194.93C299.5 195.211 299.435 195.54 299.435 195.918V203.904C299.435 204.249 299.489 204.552 299.597 204.811C299.716 205.07 299.861 205.292 300.034 205.475C300.207 205.648 300.455 205.799 300.779 205.929C301.103 206.048 301.411 206.139 301.703 206.204C301.994 206.269 302.383 206.323 302.869 206.366C303.366 206.399 303.803 206.42 304.181 206.431C304.559 206.431 305.056 206.431 305.671 206.431C307.432 206.431 309.71 206.22 312.507 205.799C312.82 207.3 312.977 208.969 312.977 210.805C309.748 211.431 306.94 211.744 304.554 211.744C302.772 211.744 301.206 211.636 299.856 211.42C298.506 211.204 297.313 210.859 296.276 210.383C295.239 209.908 294.451 209.255 293.911 208.423C293.371 207.592 293.101 206.593 293.101 205.427Z" fill="white"/>
<path d="M334.862 211.339H316.493V188.677H334.862C335.046 190.362 335.046 192.046 334.862 193.731H322.827V197.473H334.538C334.722 199.147 334.722 200.815 334.538 202.478H322.827V206.269H334.862C335.046 207.954 335.046 209.644 334.862 211.339Z" fill="white"/>
</svg>
